la/yelp.svg

<svg xmlns="http://www.w3.org/2000/svg" viewBox="0 0 32 32" height="1em" width="1em">
  <path d="M 14.34375 4 C 12.871094 4.050781 9.742188 4.988281 9.09375 5.65625 C 8.855469 5.902344 8.742188 6.230469 8.8125 6.5 C 8.929688 6.738281 13.875 14.5 13.875 14.5 C 14.609375 15.6875 15.210938 15.5 15.40625 15.4375 C 15.601563 15.378906 16.191406 15.199219 16.125 13.8125 C 16.054688 12.191406 15.589844 4.992188 15.53125 4.65625 C 15.449219 4.351563 15.1875 4.117188 14.84375 4.03125 C 14.714844 4 14.554688 3.992188 14.34375 4 Z M 21.8125 11.09375 C 21.664063 11.097656 21.535156 11.132813 21.40625 11.21875 C 21.25 11.320313 21.128906 11.472656 18.9375 14.46875 C 18.9375 14.46875 17.949219 15.832031 17.9375 15.84375 C 17.675781 16.160156 17.683594 16.609375 17.9375 17 C 18.203125 17.402344 18.625 17.613281 19.03125 17.5 C 19.03125 17.5 19.035156 17.523438 19.03125 17.53125 C 19.234375 17.457031 19.59375 17.34375 20.25 17.1875 C 24.34375 16.195313 24.496094 16.167969 24.65625 16.0625 C 24.902344 15.894531 25.019531 15.589844 25 15.25 C 25 15.238281 25.003906 15.230469 25 15.21875 C 24.894531 14.214844 23.148438 11.609375 22.28125 11.1875 C 22.128906 11.113281 21.960938 11.089844 21.8125 11.09375 Z M 8.0625 15.125 C 7.765625 15.113281 7.496094 15.273438 7.3125 15.5625 C 6.921875 16.1875 6.769531 18.132813 6.90625 19.4375 C 6.957031 19.871094 7.011719 20.253906 7.125 20.46875 C 7.28125 20.765625 7.546875 20.925781 7.84375 20.9375 C 8.035156 20.945313 8.179688 20.90625 11.78125 19.75 C 11.78125 19.75 13.367188 19.253906 13.375 19.25 C 13.773438 19.148438 14.035156 18.78125 14.0625 18.3125 C 14.089844 17.832031 13.84375 17.402344 13.4375 17.25 C 13.4375 17.25 12.316406 16.78125 12.3125 16.78125 C 8.441406 15.183594 8.257813 15.128906 8.0625 15.125 Z M 19.09375 19.53125 C 18.796875 19.523438 18.46875 19.664063 18.25 19.9375 C 17.945313 20.308594 17.914063 20.816406 18.15625 21.1875 L 18.78125 22.21875 C 20.917969 25.691406 21.09375 25.910156 21.25 26.03125 C 21.488281 26.21875 21.78125 26.25 22.09375 26.125 C 23.003906 25.761719 24.984375 23.253906 25.125 22.28125 C 25.171875 21.941406 25.078125 21.65625 24.84375 21.46875 C 24.691406 21.355469 24.566406 21.308594 20.96875 20.125 C 20.96875 20.125 19.394531 19.605469 19.375 19.59375 C 19.28125 19.558594 19.191406 19.535156 19.09375 19.53125 Z M 14.71875 20.65625 C 14.507813 20.703125 14.324219 20.832031 14.1875 21 C 14.1875 21 13.410156 21.9375 13.40625 21.9375 C 10.691406 25.121094 10.597656 25.25 10.53125 25.4375 C 10.492188 25.546875 10.457031 25.695313 10.46875 25.8125 C 10.484375 25.984375 10.558594 26.128906 10.6875 26.28125 C 11.316406 27.027344 14.351563 28.132813 15.3125 27.96875 C 15.648438 27.90625 15.863281 27.75 15.96875 27.46875 C 16.03125 27.285156 16.050781 27.160156 16.0625 23.375 C 16.0625 23.375 16.0625 21.707031 16.0625 21.6875 C 16.089844 21.277344 15.839844 20.886719 15.40625 20.71875 C 15.183594 20.632813 14.929688 20.609375 14.71875 20.65625 Z"/>
</svg>

<svg xmlns="http://www.w3.org/2000/svg" viewBox="0 0 32 32" height="1em" width="1em">
  <path d="M14.344 4c-1.473.05-4.602.988-5.25 1.656-.239.246-.352.574-.281.844.117.238 5.062 8 5.062 8 .734 1.188 1.336 1 1.531.938.196-.06.785-.239.719-1.626-.07-1.62-.535-8.82-.594-9.156-.082-.304-.344-.539-.687-.625a1.879 1.879 0 0 0-.5-.031Zm7.469 7.094a.731.731 0 0 0-.407.125c-.156.101-.277.254-2.468 3.25 0 0-.989 1.363-1 1.375-.262.316-.254.765 0 1.156.265.402.687.613 1.093.5 0 0 .004.023 0 .031.203-.074.563-.187 1.219-.343 4.094-.993 4.246-1.02 4.406-1.125.246-.168.364-.473.344-.813 0-.012.004-.02 0-.031-.105-1.004-1.852-3.61-2.719-4.031a1.018 1.018 0 0 0-.468-.094Zm-13.75 4.031c-.297-.012-.567.148-.75.438-.391.624-.543 2.57-.407 3.874.051.434.106.817.219 1.032a.836.836 0 0 0 .719.468c.191.008.336-.03 3.937-1.187 0 0 1.586-.496 1.594-.5.398-.102.66-.469.688-.938.027-.48-.22-.91-.626-1.062 0 0-1.12-.469-1.124-.469-3.872-1.597-4.055-1.652-4.25-1.656Zm11.03 4.406a1.07 1.07 0 0 0-.843.407c-.305.37-.336.878-.094 1.25l.625 1.03c2.137 3.473 2.313 3.692 2.469 3.813.238.188.531.219.844.094.91-.363 2.89-2.871 3.031-3.844.047-.34-.047-.625-.281-.812-.153-.114-.278-.16-3.875-1.344 0 0-1.574-.52-1.594-.531a.888.888 0 0 0-.281-.063Zm-4.374 1.125a.967.967 0 0 0-.531.344s-.778.938-.782.938c-2.715 3.183-2.808 3.312-2.875 3.5a.947.947 0 0 0-.062.375c.015.171.09.316.219.468.628.746 3.664 1.852 4.624 1.688.336-.063.551-.219.657-.5.062-.184.082-.309.094-4.094v-1.688c.027-.41-.223-.8-.657-.968a1.235 1.235 0 0 0-.687-.063Z"/>
</svg>
